dist/img/sprites/catalogs.svg

<svg width="70" height="71" viewBox="0 0 70 71" fill="none" xmlns="http://www.w3.org/2000/svg">
<path d="M26.3736 55.6136C26.3818 50.1106 26.3818 44.3643 26.3736 38.0434C26.3704 35.3739 24.6313 33.644 21.9424 33.6375C19.9305 33.6327 17.9187 33.6343 15.9052 33.6359H13.2292C12.3264 33.6359 11.4252 33.6359 10.5224 33.6359C9.63417 33.6359 8.73298 33.6359 7.82853 33.6359C6.67566 33.6359 5.51628 33.6359 4.36828 33.6408C1.76862 33.6505 0.0181908 35.3918 0.0116958 37.9753C-0.00129442 43.4506 -0.00129442 49.2229 0.0116958 55.62C0.0165671 58.2311 1.78485 59.9886 4.41049 59.9935C10.2561 60.0049 16.1699 60.0049 21.9878 59.9935C24.6086 59.9886 26.372 58.2295 26.3753 55.6152L26.3736 55.6136ZM23.2641 56.8826H3.14233V36.7257H23.2641V56.8826Z" fill="#4B8125"/>
<path d="M21.9573 0.00649122C19.1401 0.00162281 16.279 0 13.3286 0C10.3782 0 7.52197 0.00162281 4.45467 0.00649122C1.75596 0.00973683 0.0120251 1.76724 0.00877757 4.48219C0.00228248 10.4914 0.00228248 16.353 0.00877757 21.903C0.0120251 24.6066 1.76408 26.356 4.4709 26.3609C6.48276 26.3641 8.49623 26.3641 10.5081 26.3625H13.1824H15.8649C17.8751 26.3625 19.8854 26.3625 21.8956 26.3609C24.6544 26.356 26.3707 24.6569 26.374 21.9257C26.3805 15.9213 26.3805 10.0354 26.374 4.43026C26.3707 1.74776 24.6365 0.0113596 21.9573 0.00649122ZM23.2709 23.2386H3.10856V3.12552H23.2709V23.2386Z" fill="#4B8125"/>
<path d="M59.9748 10.3989H33.6924V13.3622H59.9748V10.3989Z" fill="#4B8125"/>
<path d="M60.0001 33.6958H33.6934V36.6298H60.0001V33.6958Z" fill="#4B8125"/>
<path d="M49.6258 20.7847H33.6934V23.7333H49.6258V20.7847Z" fill="#4B8125"/>
<path d="M49.6128 54.4111H33.6738V57.3728H49.6128V54.4111Z" fill="#4B8125"/>
<path d="M44.4223 0.0454102H33.6924V3.02488H44.4223V0.0454102Z" fill="#4B8125"/>
<path d="M44.4304 44.022H33.6924V46.9836H44.4304V44.022Z" fill="#4B8125"/>
<g filter="url(#filter0_f_1910_11096)">
<path d="M31.3736 60.6136C31.3818 55.1106 31.3818 49.3643 31.3736 43.0434C31.3704 40.3739 29.6313 38.644 26.9424 38.6375C24.9305 38.6327 22.9187 38.6343 20.9052 38.6359H18.2292C17.3264 38.6359 16.4252 38.6359 15.5224 38.6359C14.6342 38.6359 13.733 38.6359 12.8285 38.6359C11.6757 38.6359 10.5163 38.6359 9.36828 38.6408C6.76862 38.6505 5.01819 40.3918 5.0117 42.9753C4.99871 48.4506 4.99871 54.2229 5.0117 60.62C5.01657 63.2311 6.78485 64.9886 9.41049 64.9935C15.2561 65.0049 21.1699 65.0049 26.9878 64.9935C29.6086 64.9886 31.372 63.2295 31.3753 60.6152L31.3736 60.6136ZM28.2641 61.8826H8.14233V41.7257H28.2641V61.8826Z" fill="#89B21D" fill-opacity="0.35"/>
<path d="M26.9573 5.00649C24.1401 5.00162 21.279 5 18.3286 5C15.3782 5 12.522 5.00162 9.45467 5.00649C6.75596 5.00974 5.01203 6.76724 5.00878 9.48219C5.00228 15.4914 5.00228 21.353 5.00878 26.903C5.01203 29.6066 6.76408 31.356 9.4709 31.3609C11.4828 31.3641 13.4962 31.3641 15.5081 31.3625H18.1824H20.8649C22.8751 31.3625 24.8854 31.3625 26.8956 31.3609C29.6544 31.356 31.3707 29.6569 31.374 26.9257C31.3805 20.9213 31.3805 15.0354 31.374 9.43026C31.3707 6.74776 29.6365 5.01136 26.9573 5.00649ZM28.2709 28.2386H8.10856V8.12552H28.2709V28.2386Z" fill="#89B21D" fill-opacity="0.35"/>
<path d="M64.9748 15.3989H38.6924V18.3622H64.9748V15.3989Z" fill="#89B21D" fill-opacity="0.35"/>
<path d="M65.0001 38.6958H38.6934V41.6298H65.0001V38.6958Z" fill="#89B21D" fill-opacity="0.35"/>
<path d="M54.6258 25.7847H38.6934V28.7333H54.6258V25.7847Z" fill="#89B21D" fill-opacity="0.35"/>
<path d="M54.6128 59.4111H38.6738V62.3728H54.6128V59.4111Z" fill="#89B21D" fill-opacity="0.35"/>
<path d="M49.4223 5.04541H38.6924V8.02488H49.4223V5.04541Z" fill="#89B21D" fill-opacity="0.35"/>
<path d="M49.4304 49.022H38.6924V51.9836H49.4304V49.022Z" fill="#89B21D" fill-opacity="0.35"/>
</g>
<defs>
<filter id="filter0_f_1910_11096" x="0.00195312" y="0" width="69.998" height="70.002" filterUnits="userSpaceOnUse" color-interpolation-filters="sRGB">
<feFlood flood-opacity="0" result="BackgroundImageFix"/>
<feBlend mode="normal" in="SourceGraphic" in2="BackgroundImageFix" result="shape"/>
<feGaussianBlur stdDeviation="2.5" result="effect1_foregroundBlur_1910_11096"/>
</filter>
</defs>
</svg>

<svg width="70" height="71" viewBox="0 0 70 71" fill="none" xmlns="http://www.w3.org/2000/svg"><path d="M26.374 55.614c.008-5.503.008-11.25 0-17.57-.004-2.67-1.743-4.4-4.432-4.406-2.012-.005-4.023-.004-6.037-.002H7.83c-1.153 0-2.313 0-3.46.005-2.6.01-4.35 1.75-4.357 4.334C0 43.451 0 49.223.013 55.62c.005 2.611 1.773 4.369 4.398 4.373 5.846.012 11.76.012 17.578 0 2.62-.004 4.384-1.764 4.387-4.378l-.001-.001zm-3.11 1.269H3.142V36.726h20.122v20.157zM21.957.006a4994.321 4994.321 0 00-17.502 0C1.756.01.012 1.767.009 4.482a7223.15 7223.15 0 000 17.421c.003 2.704 1.755 4.453 4.462 4.458 2.012.003 4.025.003 6.037.002h5.357c2.01 0 4.02 0 6.03-.002 2.76-.005 4.476-1.704 4.479-4.435.007-6.005.007-11.89 0-17.496-.003-2.682-1.737-4.419-4.417-4.424zm1.314 23.233H3.109V3.126H23.27v20.113zm36.704-12.84H33.692v2.963h26.283V10.4zM60 33.696H33.693v2.934H60v-2.934zM49.626 20.785H33.693v2.948h15.933v-2.948zm-.013 33.626h-15.94v2.962h15.94V54.41zM44.422.045h-10.73v2.98h10.73V.045zm.008 43.977H33.692v2.962H44.43v-2.962z" fill="#4B8125"/><g filter="url(#filter0_f_1910_11096)" fill="#89B21D" fill-opacity=".35"><path d="M31.374 60.614c.008-5.503.008-11.25 0-17.57-.004-2.67-1.743-4.4-4.432-4.406-2.012-.005-4.023-.004-6.037-.002h-8.077c-1.152 0-2.312 0-3.46.005-2.6.01-4.35 1.75-4.356 4.334-.013 5.476-.013 11.248 0 17.645.005 2.611 1.773 4.369 4.398 4.373 5.846.012 11.76.012 17.578 0 2.62-.004 4.384-1.763 4.387-4.378l-.001-.001zm-3.11 1.269H8.142V41.726h20.122v20.157zM26.957 5.006a4992.742 4992.742 0 00-17.502 0c-2.699.004-4.443 1.761-4.446 4.476a7223.15 7223.15 0 000 17.421c.003 2.704 1.755 4.453 4.462 4.458 2.012.003 4.025.003 6.037.002h5.357c2.01 0 4.02 0 6.03-.002 2.76-.005 4.476-1.704 4.479-4.435.007-6.005.007-11.89 0-17.496-.003-2.682-1.737-4.419-4.417-4.424zm1.314 23.233H8.109V8.126H28.27v20.113zm36.704-12.84H38.692v2.963h26.283V15.4zM65 38.696H38.693v2.934H65v-2.934zM54.626 25.785H38.693v2.948h15.933v-2.948zm-.013 33.626h-15.94v2.962h15.94V59.41zM49.422 5.045h-10.73v2.98h10.73v-2.98zm.008 43.977H38.692v2.962H49.43v-2.962z"/></g><defs><filter id="filter0_f_1910_11096" x=".002" y="0" width="69.998" height="70.002" filterUnits="userSpaceOnUse" color-interpolation-filters="sRGB"><feFlood flood-opacity="0" result="BackgroundImageFix"/><feBlend in="SourceGraphic" in2="BackgroundImageFix" result="shape"/><feGaussianBlur stdDeviation="2.5" result="effect1_foregroundBlur_1910_11096"/></filter></defs></svg>
